X:1
T:Ferguson, SM
T:Ferguson, SM
T:George Kingsley, 1843
T:Public Domain Courtesy of the Cyber Hymnal™
C:George Kingsley, 1843
Z:Public Domain
Z:Courtesy of the Cyber Hymnal™
%%score ( 1 2 ) ( 3 4 )
L:1/8
M:3/4
K:C
V:1 treble 
V:2 treble 
V:3 bass 
V:4 bass 
V:1
 [EG]2 | ([EG]2 [CE]2) [Ec]2 | ([Ac]2 [GB]2) [FA]2 | [EG]4 [CE]2 | [DF]4 [DG]2 | [CE]4 [DF]2 | %6
 [B,D]4 [DG]2 | [EG]4 [Ge]2 | (e2 d2) [Gc]2 | ([Ac]2 [GB]2) [FA]2 | [EG]4 [DG]2 | (c2 d2) [ce]2 | %12
 [Bf]4 [GB]2 | [Gc]4 |] %14
V:2
 x2 | x6 | x6 | x6 | x6 | x6 | x6 | x6 | G4 x2 | x6 | x6 | G4 x2 | x6 | x4 |] %14
V:3
 [C,G,]2 | [C,G,]4 [C,G,]2 | (A,2 C2) [F,C]2 | [C,C]4 [C,G,]2 | [C,A,]4 [B,,G,]2 | %5
 [C,G,]4 [F,,A,]2 | [G,,G,]4 [G,,B,]2 | [C,C]4 [C,C]2 | ([C,C]2 [D,B,]2) [E,C]2 | [E,C]4 [F,C]2 | %10
 [C,C]4 [F,B,]2 | ([E,C]2 [D,B,]2) [C,C]2 | [G,D]4 [G,F]2 | [C,E]4 |] %14
V:4
 x2 | x6 | F,4 x2 | x6 | x6 | x6 | x6 | x6 | x6 | x6 | x6 | x6 | x6 | x4 |] %14

